X: 1
T: the Banshee  2
T: McMahon's Reel
C: James McMahon
R: reel
Z: 2011 John Chambers <jc:trillian.mit.edu>
M: C|
L: 1/8
K: G
|: "G"G3D EDEG | "Am"AGAB "D7"d2 Bd \
| "C"e2ed "G/B"BAGA |1,3 "Am"BAGE "D7"EDDF :|2,4 "Am"BAGE "D7"EDD2 :|
|: "Am"a3g efge | "G"dBBA "(Bm)"B2Bd \
|1,3 "Em"eB~B2 gBfB | eBBA B2Bd \
:|2,4 "C"e2ed "G/B"BAGA | "Am"BAGE "D7"EDD2 :|
